X:1
T:Partition sans titre
C:Compositeur / Arrangeur
L:1/8
M:4/4
I:linebreak $
K:D
V:1 treble nm="Violon" snm="Vln."
V:1
"A" c2 ce ccAB | c2 BA"D" FDA,B |"A" ccAB eBAB | cABc"E" BBAB |"A" c2 ce ccAB | cABA"D" FDA,B | %6
"A" ccAB eBAB | cABc A3 B ::"A" Acec Acec |"E" Bded B2 (3BdB |"A" Acec acec | %11
"D" (3def"E" ec"A" A2 AB |"A" Acec Acec | Bded"E" B2 (3BdB |"A" Acec acec | %15
"D" (3def"E" ec"A" A2 AB :| %16
